svgs/sharp-solid/police-box.svg

<svg xmlns="http://www.w3.org/2000/svg" viewBox="0 0 384 512"><!--! Font Awesome Pro 6.6.0 by @fontawesome - https://fontawesome.com License - https://fontawesome.com/license (Commercial License) Copyright 2024 Fonticons, Inc. --><path d="M208 0l0 16 0 16 112 0 0 32 32 0 0 384 32 0 0 64L0 512l0-64 32 0L32 64l32 0 0-32 112 0 0-16 0-16 32 0zM96 128l0 32 32 0 0-32-32 0zm0 48l0 32 32 0 0-32-32 0zm80-48l-32 0 0 32 32 0 0-32zm-32 48l0 32 32 0 0-32-32 0zm96-48l-32 0 0 32 32 0 0-32zm0 48l-32 0 0 32 32 0 0-32zm16-48l0 32 32 0 0-32-32 0zm32 48l-32 0 0 32 32 0 0-32zM96 240l0 80 80 0 0-80-80 0z"/></svg>

<svg xmlns="http://www.w3.org/2000/svg" viewBox="0 0 384 512"><!--! Font Awesome Pro 6.4.2 by @fontawesome - https://fontawesome.com License - https://fontawesome.com/license (Commercial License) Copyright 2023 Fonticons, Inc. --><path d="M208 0V16 32H320V64h32V448h32v64H0V448H32V64H64V32H176V16 0h32zM96 128v32h32V128H96zm0 48v32h32V176H96zm80-48H144v32h32V128zm-32 48v32h32V176H144zm96-48H208v32h32V128zm0 48H208v32h32V176zm16-48v32h32V128H256zm32 48H256v32h32V176zM96 240v80h80V240H96z"/></svg>
